build/site/_/img/home-o.svg

<?xml version="1.0" encoding="UTF-8" standalone="no"?>
<svg
   xmlns:dc="http://purl.org/dc/elements/1.1/"
   xmlns:cc="http://creativecommons.org/ns#"
   xmlns:rdf="http://www.w3.org/1999/02/22-rdf-syntax-ns#"
   xmlns:svg="http://www.w3.org/2000/svg"
   xmlns="http://www.w3.org/2000/svg"
   xmlns:sodipodi="http://sodipodi.sourceforge.net/DTD/sodipodi-0.dtd"
   xmlns:inkscape="http://www.inkscape.org/namespaces/inkscape"
   version="1.1"
   x="0px"
   y="0px"
   viewBox="0 0 100 100"
   id="svg2"
   inkscape:version="0.91 r13725"
   sodipodi:docname="home.svg">
  <metadata
     id="metadata12">
    <rdf:RDF>
      <cc:Work
         rdf:about="">
        <dc:format>image/svg+xml</dc:format>
        <dc:type
           rdf:resource="http://purl.org/dc/dcmitype/StillImage" />
        <dc:title></dc:title>
      </cc:Work>
    </rdf:RDF>
  </metadata>
  <defs
     id="defs10">
    <inkscape:path-effect
       is_visible="true"
       id="path-effect4225"
       effect="spiro" />
    <inkscape:path-effect
       effect="spiro"
       id="path-effect4221"
       is_visible="true" />
    <inkscape:path-effect
       effect="spiro"
       id="path-effect4213"
       is_visible="true" />
    <inkscape:path-effect
       is_visible="true"
       id="path-effect4209"
       effect="spiro" />
    <inkscape:path-effect
       effect="spiro"
       id="path-effect4204"
       is_visible="true" />
    <inkscape:path-effect
       is_visible="true"
       id="path-effect4191"
       effect="spiro" />
    <inkscape:path-effect
       effect="spiro"
       id="path-effect4187"
       is_visible="true" />
    <inkscape:path-effect
       effect="spiro"
       id="path-effect4183"
       is_visible="true" />
    <inkscape:path-effect
       is_visible="true"
       id="path-effect4179"
       effect="spiro" />
    <inkscape:path-effect
       effect="spiro"
       id="path-effect4173"
       is_visible="true" />
    <inkscape:path-effect
       is_visible="true"
       id="path-effect4169"
       effect="spiro" />
    <inkscape:path-effect
       effect="spiro"
       id="path-effect4165"
       is_visible="true" />
  </defs>
  <sodipodi:namedview
     borderopacity="1"
     objecttolerance="10"
     gridtolerance="10"
     guidetolerance="10"
     inkscape:pageopacity="0"
     inkscape:pageshadow="2"
     inkscape:window-width="2560"
     inkscape:window-height="1406"
     id="namedview8"
     showgrid="false"
     inkscape:zoom="8.1458701"
     inkscape:cx="33.343764"
     inkscape:cy="44.907032"
     inkscape:window-x="0"
     inkscape:window-y="0"
     inkscape:window-maximized="1"
     inkscape:current-layer="g4" />
  <g
     transform="translate(0,-952.36218)"
     id="g4">
    <path
       style="fill:none;fill-rule:evenodd;stroke:#222;stroke-width:4;stroke-linecap:butt;stroke-linejoin:miter;stroke-miterlimit:4;stroke-dasharray:none;stroke-opacity:1;fill-opacity:1"
       d="M 50.019531 13.576172 L 21.439453 39.115234 L 21.419922 86.460938 L 42.925781 86.460938 L 42.951172 61.294922 L 57.048828 61.294922 L 57.074219 86.460938 L 78.619141 86.460938 L 78.638672 39.150391 L 50.019531 13.576172 z "
       id="path4175"
       transform="translate(0,952.36218)" />
    <path
       style="fill:none;fill-rule:evenodd;stroke:#222;stroke-width:4;stroke-linecap:butt;stroke-linejoin:miter;stroke-miterlimit:4;stroke-dasharray:none;stroke-opacity:1"
       d="m 63.815035,25.903568 0,-9.217018 8.656932,0 -2e-6,16.95383 z"
       id="path4193"
       transform="translate(0,952.36218)"
       inkscape:connector-curvature="0"
       sodipodi:nodetypes="ccccc" />
    <path
       inkscape:connector-curvature="0"
       style="fill:none;fill-rule:evenodd;stroke:#222;stroke-width:4;stroke-linecap:butt;stroke-linejoin:miter;stroke-miterlimit:4;stroke-dasharray:none;stroke-opacity:1"
       d="m 21.43888,991.47783 -9.98234,8.92037"
       id="path4177" />
    <path
       inkscape:connector-curvature="0"
       style="fill:none;fill-rule:evenodd;stroke:#222;stroke-width:4;stroke-linecap:butt;stroke-linejoin:miter;stroke-miterlimit:4;stroke-dasharray:none;stroke-opacity:1"
       d="m 88.58189,1000.3982 -9.94315,-8.88535"
       id="path4170" />
  </g>
</svg>

<svg xmlns="http://www.w3.org/2000/svg" viewBox="0 0 100 100"><g fill="none" stroke="#222" stroke-width="4"><path d="M50.02 13.576l-28.58 25.54-.02 47.345h21.506l.025-25.166H57.05l.025 25.166H78.62l.02-47.31-28.62-25.575z"/><path d="M63.815 25.904v-9.217h8.657V33.64zM21.439 39.116l-9.982 8.92m77.125 0l-9.943-8.885"/></g></svg>
